dist/assets/img/svg/icon-acc-02.svg

<svg width="40" height="41" viewBox="0 0 40 41" fill="none" xmlns="http://www.w3.org/2000/svg">
<path d="M18.9998 0.399902C18.6418 0.399902 18.2837 0.536358 18.01 0.810059L8.62012 10.1999H12.5795L18.9998 3.77959L25.4201 10.1999H29.3795L19.9896 0.810059C19.7159 0.536358 19.3579 0.399902 18.9998 0.399902ZM2.1998 12.9999C1.427 12.9999 0.799805 13.6271 0.799805 14.3999V17.1999C0.799805 17.9727 1.427 18.5999 2.1998 18.5999H2.43223L4.60879 31.6593C4.83419 33.0089 6.00271 33.9999 7.37051 33.9999H24.5998V24.1999C24.5998 21.8843 26.4842 19.9999 28.7998 19.9999C29.721 19.9999 30.6132 20.3079 31.3482 20.8749C31.3552 20.8805 31.3631 20.8857 31.3701 20.8913L34.7799 23.3194L35.5674 18.5999H35.7998C36.5726 18.5999 37.1998 17.9727 37.1998 17.1999V14.3999C37.1998 13.6271 36.5726 12.9999 35.7998 12.9999H2.1998ZM28.8217 22.7835C28.6226 22.7793 28.425 22.8175 28.2419 22.8957C28.0588 22.9739 27.8945 23.0902 27.7599 23.237C27.6254 23.3837 27.5236 23.5574 27.4615 23.7466C27.3994 23.9357 27.3784 24.136 27.3998 24.3339V36.7999C27.3998 37.5727 28.027 38.1999 28.7998 38.1999C29.203 38.1999 29.5595 38.0245 29.8143 37.7515L29.8225 37.7542L32.4557 34.6425L35.2475 40.2261C35.3297 40.3906 35.4435 40.5373 35.5824 40.6578C35.7213 40.7783 35.8826 40.8702 36.057 40.9284C36.2315 40.9866 36.4157 41.0098 36.5991 40.9968C36.7825 40.9837 36.9616 40.9347 37.1261 40.8525C37.2906 40.7702 37.4372 40.6564 37.5577 40.5175C37.6782 40.3785 37.7701 40.2172 37.8283 40.0428C37.8864 39.8683 37.9096 39.6841 37.8965 39.5007C37.8835 39.3173 37.8344 39.1382 37.7521 38.9737L34.9029 33.278L38.9853 32.5452L38.9881 32.5206C39.5677 32.3512 39.9998 31.8355 39.9998 31.1999C39.9998 30.7113 39.7326 30.3021 39.3518 30.0515L39.3572 30.0241L29.7814 23.1937C29.5263 22.9383 29.1825 22.7914 28.8217 22.7835Z" fill="#5588E0"/>
</svg>

<svg width="40" height="41" fill="none" xmlns="http://www.w3.org/2000/svg"><path d="M19 .4c-.358 0-.716.136-.99.41L8.62 10.2h3.96L19 3.78l6.42 6.42h3.96L19.99.81A1.395 1.395 0 0019 .4zM2.2 13a1.4 1.4 0 00-1.4 1.4v2.8a1.4 1.4 0 001.4 1.4h.232L4.61 31.66A2.802 2.802 0 007.37 34H24.6v-9.8c0-2.316 1.884-4.2 4.2-4.2.921 0 1.813.308 2.548.875l.022.016 3.41 2.428.787-4.72h.233a1.4 1.4 0 001.4-1.4v-2.8a1.4 1.4 0 00-1.4-1.4H2.2zm26.622 9.784a1.4 1.4 0 00-1.422 1.55V36.8a1.4 1.4 0 001.4 1.4c.403 0 .76-.175 1.014-.449l.009.003 2.633-3.111 2.791 5.583a1.4 1.4 0 102.505-1.252l-2.85-5.696 4.083-.733.003-.024c.58-.17 1.012-.686 1.012-1.321 0-.489-.267-.898-.648-1.148l.005-.028-9.576-6.83a1.4 1.4 0 00-.96-.41z" fill="#5588E0"/></svg>.1998 17.1999V14.3999C37.1998 13.6271 36.5726 12.9999 35.7998 12.9999H2.1998ZM28.8217 22.7835C28.6226 22.7793 28.425 22.8175 28.2419 22.8957C28.0588 22.9739 27.8945 23.0902 27.7599 23.237C27.6254 23.3837 27.5236 23.5574 27.4615 23.7466C27.3994 23.9357 27.3784 24.136 27.3998 24.3339V36.7999C27.3998 37.5727 28.027 38.1999 28.7998 38.1999C29.203 38.1999 29.5595 38.0245 29.8143 37.7515L29.8225 37.7542L32.4557 34.6425L35.2475 40.2261C35.3297 40.3906 35.4435 40.5373 35.5824 40.6578C35.7213 40.7783 35.8826 40.8702 36.057 40.9284C36.2315 40.9866 36.4157 41.0098 36.5991 40.9968C36.7825 40.9837 36.9616 40.9347 37.1261 40.8525C37.2906 40.7702 37.4372 40.6564 37.5577 40.5175C37.6782 40.3785 37.7701 40.2172 37.8283 40.0428C37.8864 39.8683 37.9096 39.6841 37.8965 39.5007C37.8835 39.3173 37.8344 39.1382 37.7521 38.9737L34.9029 33.278L38.9853 32.5452L38.9881 32.5206C39.5677 32.3512 39.9998 31.8355 39.9998 31.1999C39.9998 30.7113 39.7326 30.3021 39.3518 30.0515L39.3572 30.0241L29.7814 23.1937C29.5263 22.9383 29.1825 22.7914 28.8217 22.7835Z" fill="#5588E0"/>
</svg>
